X:1
T:HONble Mrs F. GRAY
T:HONble Mrs F. GRAY
T:NATH GOW
C:NATH GOW
%%score 1 2
L:1/8
M:4/4
K:F
V:1 treble 
V:2 bass 
V:1
S f |: c>d f>g (a/g/).f/.e/ Tf2 | c>d f>a gG B<d | c>d f>g (a/g/).f/.e/ (.f>.d) |1 %4
 c<A f>d c>F A<f :|2 c<A fd cF A<d || (cA) (.f.A) aA TcA | (cA) (.f>.d) cG Bd | %8
 (cA) (.f>c) a>f ge | f>c d<f AF A<f | (cA) (.f.A) aA TcA | .c(f e).f (g>G) B<d | %12
 (cA) (.a>f) g>e f>d |S c>f e/f/g/e/ f>F A<f |] %14
V:2
 z |: F,2 [A,C]2 [A,C]2 [A,C]2 | F,2 [A,C]2 C,2 [E,G,]2 | F,2 [A,C]2 [A,C]2 [F,A,]2 |1 %4
 [F,A,]2 [F,B,]2 [F,A,]2 [F,,F,]2 :|2 [F,A,]2 [F,B,]2 [F,A,]2 [F,,F,]2 || %6
 [F,,F,]2 [F,A,]2 [F,C]2 [F,A,]2 | [F,A,]2 [F,A,]2 [C,E,G,]2 [C,E,G,]2 | %8
 [F,,F,]2 [F,A,]2 [F,C]2 [F,A,]2 | [F,A,]2 [F,B,]2 [F,A,]2 F,2 | [F,,F,]2 [F,A,]2 [F,C]2 [F,A,]2 | %11
 F,2 [A,C]2 C,2 [E,G,]2 | F,2 [F,C]2 [F,B,]2 [F,A,]2 | [F,A,]2 [C,G,B,]2 [F,A,]2 [F,,F,]2 |] %14

